X: 9
T: the Road and Miles to Dundee
O: trad
R: waltz
Z: 2008 John Chambers <jc@trillian.mit.edu>
M: 3/4
L: 1/8
K: G
d2 \
| "G"d4cB | "G7"B2A2D2 \
| "C"G4FE | "G"D2G2B2 \
| "C"c4de | "G"d2B2G2 \
|1 "A7"G2F2G2 | "D7"A4 \
:|2 "D7"c2A2F2 | "G"G4 |]

